X: 37842
T: Sophie's
R: jig
M: 6/8
K: Bminor
|:A|Bdf B2 B|AGF DEF|GBd c2 B|BAG EFD|
Bdf B2 B|AGF DEF|GBd FBd|efd B2:|
|:c|dfe dBA|BGB AFD|EFG Adc|BGB AFD|
dfe dBA|BGB AFD|EFG FED|EFD B2:|

